src/next/cmd/sc_setoptimalrowheight.svg

<svg height="16" width="16" xmlns="http://www.w3.org/2000/svg" xmlns:xlink="http://www.w3.org/1999/xlink"><linearGradient id="a" gradientTransform="matrix(1.0769499 0 0 1.5652564 2.256411 -5.222398)" gradientUnits="userSpaceOnUse" x1="46.048" x2="46.048" y1="110.69923" y2="16.6203"><stop offset="0" stop-color="#c7cdd7"/><stop offset="1" stop-color="#fff"/></linearGradient><linearGradient id="b" gradientUnits="userSpaceOnUse" x1="67.266975" x2="67.266975" y1="176.02724" y2="-80.020844"><stop offset="0"/><stop offset="1" stop-color="#fff"/></linearGradient><linearGradient id="c" gradientUnits="userSpaceOnUse" x1="80" x2="128.00005" y1="72" y2="72"><stop offset="0" stop-color="#fff"/><stop offset="1" stop-color="#fff" stop-opacity="0"/></linearGradient><mask id="d" maskUnits="userSpaceOnUse"><path d="m0 16h128.00005v112h-128.00005z" fill="url(#c)"/></mask><linearGradient id="e" gradientTransform="matrix(0 -1 -1 0 88.00001 108.0355)" gradientUnits="userSpaceOnUse" x1="113.15723" x2="39.268185" xlink:href="#f" y1="25.786163" y2="25.786163"/><linearGradient id="f"><stop offset="0" stop-color="#0968ef"/><stop offset="1" stop-color="#aecffc"/></linearGradient><linearGradient id="g" gradientTransform="matrix(0 1 -1 0 88.00001 19.844032)" gradientUnits="userSpaceOnUse" x1="113.15723" x2="39.268185" xlink:href="#f" y1="25.786163" y2="25.786163"/><g transform="matrix(.125 0 0 .125 0 .007529)"><text x="552.36987" y="202.81038"><tspan fill="#555" x="552.36987" y="219.61037"/></text><text x="284.18808" y="202.81038"><tspan fill="#555" x="284.18808" y="219.61037"/></text><text x="-10.252362" y="133.87732"><tspan fill="#555" x="-10.252362" y="150.67731"/></text><text x="161.66467" y="-39.856026"><tspan fill="#555" x="161.66467" y="-23.056038"/></text><text x="681.37421" y="191.74835"><tspan fill="#555" x="681.37421" y="208.54834"/></text><text x="386.93372" y="122.81529"><tspan fill="#555" x="386.93372" y="139.61528"/></text><text x="916.79553" y="269.00107"><tspan fill="#555" x="916.79553" y="285.80106"/></text><g mask="url(#d)" transform="translate(0 -8)"><path d="m4.906408 55.955807h123.093592v24.044193h-123.093592z" fill="url(#a)"/><path d="m0 56v4 28 4 4h5 38 5 27 5 48v-8h-48v-24h48v-8h-48-5-27-5-38zm5 8h38v24h-38zm43 0h27v24h-27z" fill="url(#b)" transform="translate(0 -8)"/></g><text x="-125.08443" y="-253.18964"><tspan fill="#555" x="-125.08443" y="-236.38965"/></text><text x="-393.26624" y="-253.18964"><tspan fill="#555" x="-393.26624" y="-236.38965"/></text><text x="-687.70667" y="-322.12268"><tspan fill="#555" x="-687.70667" y="-305.32269"/></text><text x="-515.78961" y="-495.85605"><tspan fill="#555" x="-515.78961" y="-479.05606"/></text><text x="3.919907" y="-264.25165"><tspan fill="#555" x="3.919907" y="-247.45168"/></text><text x="-290.5206" y="-333.18472"><tspan fill="#555" x="-290.5206" y="-316.38474"/></text><text x="239.34123" y="-186.99895"><tspan fill="#555" x="239.34123" y="-170.19896"/></text><g fill-rule="evenodd"><path d="m60-.120468 20.00001 23.999998-3.97484 3.97484-12.02517-7.79874v19.94437h-8v-19.94437l-11.8239 7.79874-4.1761-3.97484z" fill="url(#e)"/><path d="m60 128 20.00001-24-3.97484-3.97484-12.02517 7.79874v-27.944368h-8v27.944368l-11.8239-7.79874-4.1761 3.97484z" fill="url(#g)"/></g></g></svg>

<?xml version="1.0" encoding="UTF-8" standalone="no"?>
<svg
   xmlns:dc="http://purl.org/dc/elements/1.1/"
   xmlns:cc="http://creativecommons.org/ns#"
   xmlns:rdf="http://www.w3.org/1999/02/22-rdf-syntax-ns#"
   xmlns:svg="http://www.w3.org/2000/svg"
   xmlns="http://www.w3.org/2000/svg"
   xmlns:xlink="http://www.w3.org/1999/xlink"
   xmlns:sodipodi="http://sodipodi.sourceforge.net/DTD/sodipodi-0.dtd"
   xmlns:inkscape="http://www.inkscape.org/namespaces/inkscape"
   height="16"
   width="16"
   version="1.1"
   id="svg95"
   sodipodi:docname="sc_setoptimalrowheight.svg"
   inkscape:version="0.92.3 (2405546, 2018-03-11)"
   inkscape:export-filename="/home/rizmut/Dokumen/Rizmut/Github/libreoffice-style-karasa-jaga/build/next/cmd/sc_setoptimalrowheight.png"
   inkscape:export-xdpi="96"
   inkscape:export-ydpi="96">
  <metadata
     id="metadata101">
    <rdf:RDF>
      <cc:Work
         rdf:about="">
        <dc:format>image/svg+xml</dc:format>
        <dc:type
           rdf:resource="http://purl.org/dc/dcmitype/StillImage" />
        <dc:title></dc:title>
      </cc:Work>
    </rdf:RDF>
  </metadata>
  <defs
     id="defs99" />
  <sodipodi:namedview
     pagecolor="#ffffff"
     bordercolor="#666666"
     borderopacity="1"
     objecttolerance="10"
     gridtolerance="10"
     guidetolerance="10"
     inkscape:pageopacity="0"
     inkscape:pageshadow="2"
     inkscape:window-width="1366"
     inkscape:window-height="714"
     id="namedview97"
     showgrid="true"
     inkscape:zoom="14.75"
     inkscape:cx="13.195221"
     inkscape:cy="4.8828674"
     inkscape:window-x="0"
     inkscape:window-y="28"
     inkscape:window-maximized="1"
     inkscape:current-layer="g142">
    <inkscape:grid
       type="xygrid"
       id="grid103" />
  </sodipodi:namedview>
  <linearGradient
     id="a"
     gradientTransform="matrix(1.0769499,0,0,1.5652564,2.256411,-5.222398)"
     gradientUnits="userSpaceOnUse"
     x1="46.048"
     x2="46.048"
     y1="110.69923"
     y2="16.6203">
    <stop
       offset="0"
       stop-color="#c7cdd7"
       id="stop2" />
    <stop
       offset="1"
       stop-color="#fff"
       id="stop4" />
  </linearGradient>
  <linearGradient
     id="b"
     gradientUnits="userSpaceOnUse"
     x1="67.266975"
     x2="67.266975"
     y1="176.02724"
     y2="-80.020844">
    <stop
       offset="0"
       id="stop7" />
    <stop
       offset="1"
       stop-color="#fff"
       id="stop9" />
  </linearGradient>
  <linearGradient
     id="c"
     gradientUnits="userSpaceOnUse"
     x1="80"
     x2="128.00005"
     y1="72"
     y2="72">
    <stop
       offset="0"
       stop-color="#fff"
       id="stop12" />
    <stop
       offset="1"
       stop-color="#fff"
       stop-opacity="0"
       id="stop14" />
  </linearGradient>
  <mask
     id="d"
     maskUnits="userSpaceOnUse">
    <path
       d="M 0,16 H 128.00005 V 128 H 0 Z"
       id="path17"
       inkscape:connector-curvature="0"
       style="fill:url(#c)" />
  </mask>
  <linearGradient
     id="e"
     gradientTransform="matrix(0,-1,-1,0,88.00001,108.0355)"
     gradientUnits="userSpaceOnUse"
     x1="113.15723"
     x2="39.268185"
     xlink:href="#f"
     y1="25.786163"
     y2="25.786163" />
  <linearGradient
     id="f">
    <stop
       offset="0"
       stop-color="#0968ef"
       id="stop21" />
    <stop
       offset="1"
       stop-color="#aecffc"
       id="stop23" />
  </linearGradient>
  <linearGradient
     id="g"
     gradientTransform="rotate(90,34.077989,53.922021)"
     gradientUnits="userSpaceOnUse"
     x1="113.15723"
     x2="39.268185"
     xlink:href="#f"
     y1="25.786163"
     y2="25.786163" />
  <g
     id="g142"
     transform="matrix(0.125,0,0,0.125,0,0.00752925)">
    <text
       id="text29"
       y="202.81038"
       x="552.36987">
      <tspan
         id="tspan27"
         y="219.61037"
         x="552.36987"
         style="fill:#555555" />
    </text>
    <text
       id="text33"
       y="202.81038"
       x="284.18808">
      <tspan
         id="tspan31"
         y="219.61037"
         x="284.18808"
         style="fill:#555555" />
    </text>
    <text
       id="text37"
       y="133.87732"
       x="-10.252362">
      <tspan
         id="tspan35"
         y="150.67731"
         x="-10.252362"
         style="fill:#555555" />
    </text>
    <text
       id="text41"
       y="-39.856026"
       x="161.66467">
      <tspan
         id="tspan39"
         y="-23.056038"
         x="161.66467"
         style="fill:#555555" />
    </text>
    <text
       id="text45"
       y="191.74835"
       x="681.37421">
      <tspan
         id="tspan43"
         y="208.54834"
         x="681.37421"
         style="fill:#555555" />
    </text>
    <text
       id="text49"
       y="122.81529"
       x="386.93372">
      <tspan
         id="tspan47"
         y="139.61528"
         x="386.93372"
         style="fill:#555555" />
    </text>
    <text
       id="text53"
       y="269.00107"
       x="916.79553">
      <tspan
         id="tspan51"
         y="285.80106"
         x="916.79553"
         style="fill:#555555" />
    </text>
    <g
       id="g59"
       transform="translate(0,-8)"
       mask="url(#d)">
      <path
         id="path55"
         d="M 4.906408,55.955807 H 128 V 80 H 4.906408 Z"
         style="fill:url(#a)"
         inkscape:connector-curvature="0" />
      <path
         id="path57"
         transform="translate(0,-8)"
         d="m 0,56 v 4 28 4 4 h 5 38 5 27 5 48 V 88 H 80 V 64 h 48 V 56 H 80 75 48 43 5 Z m 5,8 H 43 V 88 H 5 Z m 43,0 H 75 V 88 H 48 Z"
         style="fill:url(#b)"
         inkscape:connector-curvature="0" />
    </g>
    <text
       id="text63"
       y="-253.18964"
       x="-125.08443">
      <tspan
         id="tspan61"
         y="-236.38965"
         x="-125.08443"
         style="fill:#555555" />
    </text>
    <text
       id="text67"
       y="-253.18964"
       x="-393.26624">
      <tspan
         id="tspan65"
         y="-236.38965"
         x="-393.26624"
         style="fill:#555555" />
    </text>
    <text
       id="text71"
       y="-322.12268"
       x="-687.70667">
      <tspan
         id="tspan69"
         y="-305.32269"
         x="-687.70667"
         style="fill:#555555" />
    </text>
    <text
       id="text75"
       y="-495.85605"
       x="-515.78961">
      <tspan
         id="tspan73"
         y="-479.05606"
         x="-515.78961"
         style="fill:#555555" />
    </text>
    <text
       id="text79"
       y="-264.25165"
       x="3.9199071">
      <tspan
         id="tspan77"
         y="-247.45168"
         x="3.9199071"
         style="fill:#555555" />
    </text>
    <text
       id="text83"
       y="-333.18472"
       x="-290.5206">
      <tspan
         id="tspan81"
         y="-316.38474"
         x="-290.5206"
         style="fill:#555555" />
    </text>
    <text
       id="text87"
       y="-186.99895"
       x="239.34123">
      <tspan
         id="tspan85"
         y="-170.19896"
         x="239.34123"
         style="fill:#555555" />
    </text>
    <g
       id="g93"
       style="fill-rule:evenodd">
      <path
         id="path89"
         d="M 60,-0.120468 80.00001,23.87953 76.02517,27.85437 64,20.05563 V 40 H 56 V 20.05563 L 44.1761,27.85437 40,23.87953 Z"
         style="fill:url(#e)"
         inkscape:connector-curvature="0" />
      <path
         id="path91"
         d="M 60,128 80.00001,104 76.02517,100.02516 64,107.8239 V 79.879532 H 56 V 107.8239 L 44.1761,100.02516 40,104 Z"
         style="fill:url(#g)"
         inkscape:connector-curvature="0" />
    </g>
  </g>
</svg>
